X:2
T: SCHLAF KINDLEIN SCHLAF
N: K0008
O: Europa, Mitteleuropa, Deutschland, Taunus, Niederreifenberg
R: Kinder -, Wiegen - Lied
M: 2/4
L: 1/16
K: F
 | c4B2G2 | F4z2
FA | c2c2B2G2 | F4z2
AG | F2F2c2c2 | d2d2c4 |
B2G2A2F2 | G2G2F4

@@@ Tune index: 7339
